src/images/icons/time.svg

<svg width="32" height="32" viewBox="0 0 32 32" fill="currentColor" xmlns="http://www.w3.org/2000/svg">
<path d="M27.5845 10.8623L27.991 10.4558C28.2832 10.7486 28.7844 10.7607 29.0766 10.4679L29.7046 9.83942C29.9971 9.54712 29.9971 9.05818 29.7046 8.76588L28.0571 7.11794C27.768 6.84204 27.2732 6.84204 26.9841 7.11794L26.3556 7.74642C26.1407 7.96116 26.0746 8.29304 26.1909 8.5737C26.2291 8.6658 26.2971 8.76155 26.3676 8.83202L25.938 9.26162C24.4703 8.10902 22.722 7.36826 20.873 7.11552V5.86629H21.6864C22.185 5.86603 22.6018 5.44924 22.6021 4.9506V3.9152C22.6016 3.41675 22.1848 3.00026 21.6864 3H17.1939C16.6956 3.00052 16.2792 3.41693 16.2787 3.9152V4.9506C16.2789 5.44906 16.6954 5.86576 17.1939 5.86629H18.0077V7.11649C17.4491 7.19076 16.8973 7.30989 16.3578 7.47272C16.1129 7.54749 15.9623 7.83047 16.0371 8.07538C16.1118 8.32028 16.3948 8.4709 16.6397 8.39613C18.2638 7.90024 19.9904 7.84429 21.6431 8.234C23.2959 8.62371 24.8156 9.44511 26.0471 10.6143C27.2785 11.7835 28.1776 13.2586 28.6524 14.8889C29.1272 16.5193 29.1608 18.2465 28.7498 19.894C28.3387 21.5416 27.4977 23.0506 26.3127 24.2668C25.1277 25.483 23.641 26.3629 22.0047 26.8166C20.3683 27.2703 18.6409 27.2815 16.9988 26.8492C15.3566 26.4169 13.8587 25.5564 12.6579 24.3557C12.473 24.1643 12.1576 24.1616 11.9694 24.3498C11.7812 24.5379 11.784 24.8534 11.9754 25.0383C13.8921 26.9584 16.4746 28.0666 19.1868 28.133C21.8991 28.1994 24.5327 27.2189 26.5411 25.3949C28.5496 23.571 29.7785 21.0437 29.9729 18.3376C30.1672 15.6315 29.3116 12.9545 27.5845 10.8623ZM27.5203 7.94674L28.8767 9.30265L28.5398 9.63958L27.1834 8.28318L27.5203 7.94674ZM27.0497 9.51456L27.3084 9.7728L26.9353 10.1464C26.8494 10.0595 26.761 9.97602 26.6722 9.89251L27.0497 9.51456ZM17.2436 4.90088V3.96541H21.6362V4.90088H17.2436ZM18.9726 7.03298V5.86629H19.9076V7.02767C19.5958 7.01277 19.2839 7.01949 18.9726 7.03298Z"/>
<path d="M25.7107 23.8059C27.3605 22.151 28.2869 19.9096 28.2869 17.5728C28.2869 15.236 27.3233 12.9579 25.6735 11.303C25.687 11.3146 25.661 11.2895 25.6735 11.303C24.0194 9.65193 21.7775 8.72515 19.4404 8.7263C18.9091 8.72612 18.3789 8.77345 17.8561 8.86774C17.5957 8.91277 17.4163 9.16918 17.4634 9.4293C17.5104 9.68943 17.7682 9.86676 18.028 9.81769C18.3356 9.76466 18.646 9.72985 18.9577 9.71343V10.4684C18.9577 10.7244 19.1843 10.9511 19.4404 10.9511C19.6964 10.9511 19.9231 10.7244 19.9231 10.4684V9.71633C21.6749 9.82203 23.3405 10.5127 24.6531 11.6775L24.1226 12.208C23.9312 12.3929 23.9284 12.7084 24.1166 12.8966C24.3048 13.0847 24.6203 13.082 24.8051 12.8906L25.3356 12.3601C26.5006 13.6728 27.1912 15.3386 27.2968 17.0906H26.5448C26.2888 17.0906 26.0621 17.3172 26.0621 17.5733C26.0621 17.8293 26.2888 18.056 26.5448 18.056H27.2968C27.1911 19.8078 26.5005 21.4734 25.3356 22.786L24.8051 22.255C24.624 22.074 24.3034 22.0741 24.1223 22.2553C23.9413 22.4364 23.9414 22.757 24.1226 22.938L24.6531 23.4685C23.3403 24.6335 21.6745 25.3241 19.9226 25.4298V24.6777C19.9226 24.4217 19.6959 24.195 19.4399 24.195C19.1839 24.195 18.9572 24.4217 18.9572 24.6777V25.4346C17.3509 25.3437 15.8122 24.7575 14.5525 23.7567C14.3471 23.5837 14.0296 23.6159 13.863 23.8265C13.6964 24.0372 13.7383 24.3535 13.954 24.5136C15.6507 25.8555 17.7807 26.5286 19.9405 26.4052C22.1002 26.2818 24.1778 25.3324 25.7107 23.8059C25.6981 23.8195 25.7252 23.7934 25.7107 23.8059Z"/>
<path d="M23.5598 13.4534C23.3787 13.2724 23.0583 13.2724 22.8772 13.4534L20.1717 16.1594C19.6673 15.8907 19.027 15.926 18.5518 16.2434C17.7359 16.7882 17.6067 18.0015 18.3089 18.7039C19.0112 19.4064 20.2244 19.2775 20.7695 18.4618C21.0871 17.9866 21.1225 17.3463 20.8537 16.842L23.5598 14.1364C23.7459 13.9505 23.7459 13.6394 23.5598 13.4534ZM18.9125 17.9256C18.7332 17.658 18.788 17.2871 19.037 17.0828C19.286 16.8785 19.6605 16.8972 19.8878 17.1253C20.166 17.4033 20.1191 17.8812 19.7922 18.0997C19.5049 18.2919 19.1045 18.2122 18.9125 17.9256ZM13.9038 9.69171H10.8565C10.6004 9.69171 10.3738 9.46505 10.3738 9.20901C10.3738 8.95296 10.6004 8.7263 10.8565 8.7263H13.9038C14.1598 8.7263 14.3865 8.95296 14.3865 9.20901C14.3865 9.46505 14.1598 9.69171 13.9038 9.69171ZM9.29782 9.69171H8.32132C8.06527 9.69171 7.83861 9.46505 7.83861 9.20901C7.83861 8.95296 8.06527 8.7263 8.32132 8.7263H9.29782C9.55387 8.7263 9.78053 8.95296 9.78053 9.20901C9.78053 9.46505 9.55387 9.69171 9.29782 9.69171ZM15.3924 12.8698H7.32067C7.06463 12.8698 6.83797 12.6432 6.83797 12.3871C6.83797 12.1311 7.06463 11.9044 7.32067 11.9044H15.3924C15.6485 11.9044 15.8751 12.1311 15.8751 12.3871C15.8751 12.6432 15.6485 12.8698 15.3924 12.8698ZM11.917 16.0479H3.4827C3.22666 16.0479 3 15.8213 3 15.5652C3 15.3092 3.22666 15.0825 3.4827 15.0825H11.917C12.173 15.0825 12.3997 15.3092 12.3997 15.5652C12.3997 15.8213 12.173 16.0479 11.917 16.0479ZM14.4154 16.0479H13.508C13.2519 16.0479 13.0253 15.8213 13.0253 15.5652C13.0253 15.3092 13.2519 15.0825 13.508 15.0825H14.4154C14.6715 15.0825 14.8981 15.3092 14.8981 15.5652C14.8981 15.8213 14.6715 16.0479 14.4154 16.0479ZM16.2767 19.2261H9.12308C8.86704 19.2261 8.64038 18.9994 8.64038 18.7434C8.64038 18.4873 8.86704 18.2606 9.12308 18.2606H16.2767C16.5328 18.2606 16.7594 18.4873 16.7594 18.7434C16.7594 18.9994 16.5328 19.2261 16.2767 19.2261ZM7.08801 22.4042H6.22687C5.97083 22.4042 5.74417 22.1775 5.74417 21.9215C5.74417 21.6654 5.97083 21.4388 6.22687 21.4388H7.08753C7.34357 21.4388 7.57023 21.6654 7.57023 21.9215C7.57023 22.1775 7.34405 22.4042 7.08801 22.4042ZM14.4154 22.4042H8.62397C8.36793 22.4042 8.14127 22.1775 8.14127 21.9215C8.14127 21.6654 8.36793 21.4388 8.62397 21.4388H14.4154C14.6715 21.4388 14.8981 21.6654 14.8981 21.9215C14.8981 22.1775 14.6715 22.4042 14.4154 22.4042Z"/>
</svg>

<svg xmlns="http://www.w3.org/2000/svg" fill="currentColor" viewBox="0 0 32 32">
  <path d="m27.584 10.862.407-.406.012.012a.759.759 0 0 0 1.074 0l.628-.629a.76.76 0 0 0 0-1.073l-1.648-1.648a.777.777 0 0 0-1.073 0l-.628.628a.758.758 0 0 0 0 1.074l.012.012-.43.43a10.504 10.504 0 0 0-5.065-2.146v-1.25h.813a.916.916 0 0 0 .916-.915V3.915A.917.917 0 0 0 21.686 3h-4.492a.916.916 0 0 0-.915.915v1.036a.916.916 0 0 0 .915.915h.814v1.25a10.5 10.5 0 0 0-1.65.357.483.483 0 0 0 .282.923 9.594 9.594 0 1 1-3.982 15.96.482.482 0 1 0-.683.682 10.554 10.554 0 0 0 15.61-14.176Zm-.064-2.915 1.357 1.356-.337.337-1.357-1.357.337-.336Zm-.47 1.568.258.258-.373.373a8.947 8.947 0 0 0-.263-.253l.378-.378ZM17.244 4.9v-.936h4.392V4.9h-4.392Zm1.729 2.132V5.866h.935v1.162a10.657 10.657 0 0 0-.468-.012c-.156 0-.312.01-.467.017Z"/>
  <path d="M25.71 23.806a8.828 8.828 0 0 0 0-12.466c-.006-.007-.008-.016-.014-.022-.007-.007-.016-.01-.023-.015a8.817 8.817 0 0 0-6.233-2.577 8.87 8.87 0 0 0-1.584.142.483.483 0 1 0 .172.95c.308-.053.618-.088.93-.105v.755a.482.482 0 1 0 .965 0v-.752a7.838 7.838 0 0 1 4.73 1.962l-.53.53a.484.484 0 1 0 .682.683l.53-.53a7.837 7.837 0 0 1 1.962 4.73h-.752a.482.482 0 1 0 0 .965h.752a7.837 7.837 0 0 1-1.961 4.73l-.53-.531a.483.483 0 0 0-.683.683l.53.53a7.838 7.838 0 0 1-4.73 1.962v-.752a.483.483 0 0 0-.966 0v.757a7.788 7.788 0 0 1-4.405-1.678.483.483 0 1 0-.598.757 8.838 8.838 0 0 0 11.719-.67c.007-.006.016-.009.023-.015.006-.007.008-.016.015-.023Z"/>
  <path d="M23.56 13.453a.483.483 0 0 0-.683 0l-2.705 2.706a1.58 1.58 0 0 0-.732-.185 1.599 1.599 0 1 0 1.6 1.6 1.579 1.579 0 0 0-.186-.732l2.706-2.706a.483.483 0 0 0 0-.683Zm-4.12 4.754a.634.634 0 1 1-.002-1.269.634.634 0 0 1 .002 1.269Zm-5.536-8.515h-3.047a.483.483 0 0 1 0-.966h3.047a.483.483 0 0 1 0 .966Zm-4.606 0H8.32a.483.483 0 0 1 0-.966h.977a.483.483 0 0 1 0 .966Zm6.094 3.178H7.321a.482.482 0 1 1 0-.966h8.071a.483.483 0 0 1 0 .966Zm-3.475 3.178H3.483a.483.483 0 1 1 0-.965h8.434a.483.483 0 0 1 0 .965Zm2.498 0h-.907a.483.483 0 1 1 0-.965h.907a.483.483 0 0 1 0 .965Zm1.862 3.178H9.123a.483.483 0 0 1 0-.965h7.154a.483.483 0 0 1 0 .965Zm-9.189 3.178h-.861a.483.483 0 0 1 0-.965h.86a.483.483 0 0 1 .001.965Zm7.327 0H8.624a.483.483 0 0 1 0-.965h5.791a.483.483 0 1 1 0 .965Z"/>
</svg>
